icons/arrow-duo-right.svg

<svg width="24" height="24" viewBox="0 0 24 24" fill="none" xmlns="http://www.w3.org/2000/svg">
<path fill-rule="evenodd" clip-rule="evenodd" d="M12.55 5.75C12.55 6.16421 12.2143 6.5 11.8 6.5L5.80007 6.5C5.38586 6.5 5.05007 6.16421 5.05007 5.75C5.05007 5.33579 5.38586 5 5.80007 5L11.8 5C12.2143 5 12.55 5.33579 12.55 5.75Z" fill="black"/>
<path fill-rule="evenodd" clip-rule="evenodd" d="M11.5894 5.69997L9.26974 8.01963C8.97685 8.31252 8.97685 8.78739 9.26974 9.08029C9.56264 9.37318 10.0375 9.37318 10.3304 9.08029L12.8304 6.58029C13.3233 6.08739 13.3233 5.31254 12.8304 4.81965L10.3304 2.31965C10.0375 2.02675 9.56264 2.02675 9.26974 2.31965C8.97685 2.61254 8.97685 3.08741 9.26974 3.38031L11.5894 5.69997Z" fill="black"/>
<path fill-rule="evenodd" clip-rule="evenodd" d="M17.7501 16.0499C17.7501 16.4641 17.4143 16.7999 17.0001 16.7999L5.80017 16.7999C5.38596 16.7999 5.05017 16.4641 5.05017 16.0499C5.05017 15.6357 5.38596 15.2999 5.80017 15.2999L17.0001 15.2999C17.4143 15.2999 17.7501 15.6357 17.7501 16.0499Z" fill="black"/>
<path fill-rule="evenodd" clip-rule="evenodd" d="M17.443 15.9774C17.4347 15.9592 17.4147 15.9253 17.3697 15.8803L12.8697 11.3803C12.5768 11.0874 12.5768 10.6125 12.8697 10.3196C13.1626 10.0268 13.6375 10.0268 13.9304 10.3196L18.4304 14.8196C18.7422 15.1315 18.9501 15.5387 18.9501 16C18.9501 16.4612 18.7422 16.8685 18.4304 17.1803L13.9304 21.6803C13.6375 21.9732 13.1626 21.9732 12.8697 21.6803C12.5769 21.3874 12.5769 20.9125 12.8697 20.6196L17.3697 16.1196C17.4147 16.0747 17.4347 16.0407 17.443 16.0225C17.4471 16.0134 17.4488 16.0075 17.4494 16.0046C17.4501 16.0017 17.4501 16.0004 17.4501 16C17.4501 15.9996 17.4501 15.9983 17.4494 15.9954C17.4488 15.9925 17.4471 15.9865 17.443 15.9774Z" fill="black"/>
</svg>

<svg xmlns="http://www.w3.org/2000/svg" fill="none" viewBox="0 0 24 24">
  <path fill="#000" fill-rule="evenodd" d="M12.55 5.75a.75.75 0 0 1-.75.75h-6a.75.75 0 0 1 0-1.5h6a.75.75 0 0 1 .75.75Z" clip-rule="evenodd"/>
  <path fill="#000" fill-rule="evenodd" d="M11.59 5.7 9.27 8.02a.75.75 0 0 0 1.06 1.06l2.5-2.5a1.233 1.233 0 0 0 0-1.76l-2.5-2.5a.75.75 0 1 0-1.06 1.06l2.32 2.32Zm6.16 10.35a.75.75 0 0 1-.75.75H5.8a.75.75 0 0 1 0-1.5H17a.75.75 0 0 1 .75.75Z" clip-rule="evenodd"/>
  <path fill="#000" fill-rule="evenodd" d="M17.443 15.977a.351.351 0 0 0-.073-.097l-4.5-4.5a.75.75 0 0 1 1.06-1.06l4.5 4.5c.312.312.52.719.52 1.18 0 .461-.208.869-.52 1.18l-4.5 4.5a.75.75 0 0 1-1.06-1.06l4.5-4.5a.35.35 0 0 0 .073-.098.092.092 0 0 0 .006-.017L17.45 16v-.005a.092.092 0 0 0-.007-.018Z" clip-rule="evenodd"/>
</svg>
